SVG_Azure_Grouped/Security/Extended Security Updates.svg

<?xml version="1.0" encoding="UTF-8" standalone="no"?>
<!-- Generated by Microsoft Visio, SVG Export Extended Security Updates.svg Page-1 -->

<svg
   xmlns:dc="http://purl.org/dc/elements/1.1/"
   xmlns:cc="http://creativecommons.org/ns#"
   xmlns:rdf="http://www.w3.org/1999/02/22-rdf-syntax-ns#"
   xmlns:svg="http://www.w3.org/2000/svg"
   xmlns="http://www.w3.org/2000/svg"
   xmlns:sodipodi="http://sodipodi.sourceforge.net/DTD/sodipodi-0.dtd"
   xmlns:inkscape="http://www.inkscape.org/namespaces/inkscape"
   width="0.66930205in"
   height="0.78740817in"
   viewBox="0 0 48.189632 56.693699"
   xml:space="preserve"
   class="st6"
   version="1.1"
   id="svg53"
   sodipodi:docname="Extended Security Updates.svg"
   style="font-size:12px;overflow:visible;color-interpolation-filters:sRGB;fill:none;fill-rule:evenodd;stroke-linecap:square;stroke-miterlimit:3"
   inkscape:version="0.92.5 (2060ec1f9f, 2020-04-08)"><metadata
   id="metadata57"><rdf:RDF><cc:Work
       rdf:about=""><dc:format>image/svg+xml</dc:format><dc:type
         rdf:resource="http://purl.org/dc/dcmitype/StillImage" /></cc:Work></rdf:RDF></metadata><sodipodi:namedview
   pagecolor="#ffffff"
   bordercolor="#666666"
   borderopacity="1"
   objecttolerance="10"
   gridtolerance="10"
   guidetolerance="10"
   inkscape:pageopacity="0"
   inkscape:pageshadow="2"
   inkscape:window-width="640"
   inkscape:window-height="480"
   id="namedview55"
   showgrid="false"
   inkscape:zoom="1.4193119"
   inkscape:cx="32.12583"
   inkscape:cy="37.791122"
   inkscape:window-x="0"
   inkscape:window-y="0"
   inkscape:window-maximized="0"
   inkscape:current-layer="svg53" />
	<style
   type="text/css"
   id="style2">
	<![CDATA[
		.st1 {fill:#0078d4;stroke:none;stroke-linecap:butt;stroke-width:34}
		.st2 {fill:url(#grad0-8);stroke:none;stroke-linecap:butt;stroke-width:34}
		.st3 {fill:#ffbd02;stroke:none;stroke-linecap:butt;stroke-width:34}
		.st4 {fill:#ffe452;stroke:none;stroke-linecap:butt;stroke-width:34}
		.st5 {fill:#ffd400;fill-opacity:0.5;stroke:none;stroke-linecap:butt;stroke-width:34}
		.st6 {fill:none;fill-rule:evenodd;font-size:12px;overflow:visible;stroke-linecap:square;stroke-miterlimit:3}
	]]>
	</style>

	<defs
   id="Patterns_And_Gradients">
		<linearGradient
   id="grad0-8"
   x1="-0.022186202"
   y1="67.176088"
   x2="47.92397"
   y2="67.176088"
   gradientTransform="scale(0.92312887,1.0832724)"
   gradientUnits="userSpaceOnUse">
			<stop
   offset="0"
   stop-color="#0078d4"
   stop-opacity="1"
   id="stop4" />
			<stop
   offset="0.06"
   stop-color="#0a7cd7"
   stop-opacity="1"
   id="stop6" />
			<stop
   offset="0.34"
   stop-color="#2e8ce1"
   stop-opacity="1"
   id="stop8" />
			<stop
   offset="0.59"
   stop-color="#4897e9"
   stop-opacity="1"
   id="stop10" />
			<stop
   offset="0.82"
   stop-color="#589eed"
   stop-opacity="1"
   id="stop12" />
			<stop
   offset="1"
   stop-color="#5ea0ef"
   stop-opacity="1"
   id="stop14" />
		</linearGradient>
	</defs>
	<g
   id="g51"
   transform="translate(-34.000452,-34.0043)">
		<title
   id="title18">Page-1</title>
		<g
   id="group16841-1"
   transform="translate(34,-34.0157)">
			<title
   id="title20">Extended Security Updates.16841</title>
			<g
   id="group16842-2">
				<title
   id="title22">Extended Security Updates icon</title>
				<g
   id="shape16843-3">
					<title
   id="title24">Sheet.16843</title>
					<path
   d="m 48.19,94.48 c 0,15.24 -19.13,27.51 -23.31,30.01 a 1.46337,1.43343 0 0 1 -1.57,0 C 19.13,122.02 0,109.75 0,94.48 V 76.15 a 1.4974,1.46677 0 0 1 1.46,-1.47 c 14.91,-0.36 11.47,-6.66 22.63,-6.66 11.17,0 7.73,6.3 22.64,6.66 a 1.4974,1.46677 0 0 1 1.46,1.47 z"
   class="st1"
   id="path26"
   inkscape:connector-curvature="0"
   style="fill:#0078d4;stroke:none;stroke-width:34;stroke-linecap:butt" />
				</g>
				<g
   id="shape16844-5"
   transform="translate(1.97384,-2.39058)">
					<title
   id="title29">Sheet.16844</title>
					<path
   d="m 44.24,97.01 c 0,14 -17.56,25.23 -21.4,27.5 a 1.36127,1.33343 0 0 1 -1.43,0 C 17.56,122.24 0,111.01 0,97.01 V 80.34 a 1.3953,1.36676 0 0 1 1.36,-1.6 c 13.68,-0.23 10.55,-5.97 20.76,-5.97 10.21,0 7.08,5.74 20.76,5.97 a 1.3953,1.36676 0 0 1 1.36,1.33 z"
   class="st2"
   id="path31"
   inkscape:connector-curvature="0"
   style="fill:url(#grad0-8);stroke:none;stroke-width:34;stroke-linecap:butt" />
				</g>
				<g
   id="shape16845-9"
   transform="translate(13.2724,-18.3569)">
					<title
   id="title34">Sheet.16845</title>
					<path
   d="m 20.52,110.24 h -1.36 v -4.73 a 8.91632,8.73395 -180 0 0 -2.38,-6.04 8.06553,7.90055 -180 0 0 -11.85,0 8.88229,8.70061 -180 0 0 -2.38,6.04 v 4.73 H 1.19 A 1.08902,1.06674 -180 0 0 0,111.37 v 12.27 a 1.08902,1.06674 -180 0 0 1.12,1.07 h 19.4 a 1.08902,1.06674 -180 0 0 1.12,-1.07 v -12.27 a 1.08902,1.06674 -180 0 0 -1.12,-1.13 z m -5.27,0 H 6.4 v -4.8 a 4.86654,4.767 0 0 1 1.39,-3.33 4.04978,3.96694 0 0 1 6.06,0 5.30896,5.20036 0 0 1 0.55,0.66 4.76445,4.66699 0 0 1 0.85,2.64 z"
   class="st3"
   id="path36"
   inkscape:connector-curvature="0"
   style="fill:#ffbd02;stroke:none;stroke-width:34;stroke-linecap:butt" />
				</g>
				<g
   id="shape16846-11"
   transform="translate(13.2724,-18.6902)">
					<title
   id="title39">Sheet.16846</title>
					<path
   d="m 1.12,110.57 h 19.4 a 1.08902,1.06674 0 0 1 0.72,0.27 L 0.41,124.71 A 1.12305,1.10008 0 0 1 0,123.91 v -12.2 a 1.08902,1.06674 0 0 1 1.12,-1.14 z"
   class="st4"
   id="path41"
   inkscape:connector-curvature="0"
   style="fill:#ffe452;stroke:none;stroke-width:34;stroke-linecap:butt" />
				</g>
				<g
   id="shape16847-13"
   transform="translate(13.6808,-18.6902)">
					<title
   id="title44">Sheet.16847</title>
					<path
   d="M 20.11,110.57 H 0.71 A 1.08902,1.06674 -180 0 0 0,110.84 l 20.83,13.87 a 1.02095,1.00007 -180 0 0 0.41,-0.8 v -12.2 a 1.08902,1.06674 -180 0 0 -1.13,-1.14 z"
   class="st5"
   id="path46"
   inkscape:connector-curvature="0"
   style="fill:#ffd400;fill-opacity:0.5;stroke:none;stroke-width:34;stroke-linecap:butt" />
				</g>
			</g>
		</g>
	</g>
</svg>

<?xml version="1.0" encoding="UTF-8" standalone="no"?>
<!DOCTYPE svg PUBLIC "-//W3C//DTD SVG 1.1//EN" "http://www.w3.org/Graphics/SVG/1.1/DTD/svg11.dtd">
<!-- Generated by Microsoft Visio, SVG Export Extended Security Updates.svg Page-1 -->
<svg xmlns="http://www.w3.org/2000/svg" xmlns:xlink="http://www.w3.org/1999/xlink" xmlns:ev="http://www.w3.org/2001/xml-events"
		width="1.61374in" height="1.73206in" viewBox="0 0 116.189 124.709" xml:space="preserve" color-interpolation-filters="sRGB"
		class="st6">
	<style type="text/css">
	<![CDATA[
		.st1 {fill:#0078d4;stroke:none;stroke-linecap:butt;stroke-width:34}
		.st2 {fill:url(#grad0-8);stroke:none;stroke-linecap:butt;stroke-width:34}
		.st3 {fill:#ffbd02;stroke:none;stroke-linecap:butt;stroke-width:34}
		.st4 {fill:#ffe452;stroke:none;stroke-linecap:butt;stroke-width:34}
		.st5 {fill:#ffd400;fill-opacity:0.5;stroke:none;stroke-linecap:butt;stroke-width:34}
		.st6 {fill:none;fill-rule:evenodd;font-size:12px;overflow:visible;stroke-linecap:square;stroke-miterlimit:3}
	]]>
	</style>

	<defs id="Patterns_And_Gradients">
		<linearGradient id="grad0-8" x1="0" y1="0" x2="1" y2="0" gradientTransform="rotate(-90 0.5 0.5)">
			<stop offset="0" stop-color="#0078d4" stop-opacity="1"/>
			<stop offset="0.06" stop-color="#0a7cd7" stop-opacity="1"/>
			<stop offset="0.34" stop-color="#2e8ce1" stop-opacity="1"/>
			<stop offset="0.59" stop-color="#4897e9" stop-opacity="1"/>
			<stop offset="0.82" stop-color="#589eed" stop-opacity="1"/>
			<stop offset="1" stop-color="#5ea0ef" stop-opacity="1"/>
		</linearGradient>
	</defs>
	<g>
		<title>Page-1</title>
		<g id="group16448-1" transform="translate(34,-34.0157)">
			<title>Extended Security Updates.16448</title>
			<g id="group16449-2">
				<title>Extended Security Updates icon</title>
				<g id="shape16450-3">
					<title>Sheet.16450</title>
					<path d="M48.19 94.48 C48.19 109.72 29.06 121.99 24.88 124.49 A1.46337 1.43343 0 0 1 23.31 124.49 C19.13 122.02
								 0 109.75 0 94.48 L0 76.15 A1.4974 1.46677 0 0 1 1.46 74.68 C16.37 74.32 12.93 68.02 24.09 68.02
								 C35.26 68.02 31.82 74.32 46.73 74.68 A1.4974 1.46677 0 0 1 48.19 76.15 L48.19 94.48 Z" class="st1"/>
				</g>
				<g id="shape16451-5" transform="translate(1.97384,-2.39058)">
					<title>Sheet.16451</title>
					<path d="M44.24 97.01 C44.24 111.01 26.68 122.24 22.84 124.51 A1.36127 1.33343 0 0 1 21.41 124.51 C17.56 122.24
								 0 111.01 0 97.01 L0 80.34 A1.3953 1.36676 0 0 1 1.36 78.74 C15.04 78.51 11.91 72.77 22.12 72.77
								 C32.33 72.77 29.2 78.51 42.88 78.74 A1.3953 1.36676 0 0 1 44.24 80.07 L44.24 97.01 Z" class="st2"/>
				</g>
				<g id="shape16452-9" transform="translate(13.2724,-18.3569)">
					<title>Sheet.16452</title>
					<path d="M20.52 110.24 L19.16 110.24 L19.16 105.51 A8.91632 8.73395 -180 0 0 16.78 99.47 A8.06553 7.90055 -180
								 0 0 4.93 99.47 A8.88229 8.70061 -180 0 0 2.55 105.51 L2.55 110.24 L1.19 110.24 A1.08902 1.06674
								 -180 0 0 -0 111.37 L0 123.64 A1.08902 1.06674 -180 0 0 1.12 124.71 L20.52 124.71 A1.08902 1.06674
								 -180 0 0 21.64 123.64 L21.64 111.37 A1.08902 1.06674 -180 0 0 20.52 110.24 ZM15.25 110.24 L6.4 110.24
								 L6.4 105.44 A4.86654 4.767 0 0 1 7.79 102.11 A4.04978 3.96694 0 0 1 13.85 102.11 A5.30896 5.20036
								 0 0 1 14.4 102.77 A4.76445 4.66699 0 0 1 15.25 105.41 L15.25 110.24 Z" class="st3"/>
				</g>
				<g id="shape16453-11" transform="translate(13.2724,-18.6902)">
					<title>Sheet.16453</title>
					<path d="M1.12 110.57 L20.52 110.57 A1.08902 1.06674 0 0 1 21.24 110.84 L0.41 124.71 A1.12305 1.10008 0 0 1 0
								 123.91 L0 111.71 A1.08902 1.06674 0 0 1 1.12 110.57 Z" class="st4"/>
				</g>
				<g id="shape16454-13" transform="translate(13.6808,-18.6902)">
					<title>Sheet.16454</title>
					<path d="M20.11 110.57 L0.71 110.57 A1.08902 1.06674 -180 0 0 0 110.84 L20.83 124.71 A1.02095 1.00007 -180 0
								 0 21.24 123.91 L21.24 111.71 A1.08902 1.06674 -180 0 0 20.11 110.57 Z" class="st5"/>
				</g>
			</g>
		</g>
	</g>
</svg>
